outputs/icons/action/user_settings_round.svg

<svg xmlns="http://www.w3.org/2000/svg" width="1200" height="1200" fill="none"><g fill="#000" clip-path="url(#a)"><path d="M500 600c110.455 0 200-89.545 200-200 0-110.457-89.545-200-200-200-110.457 0-200 89.543-200 200 0 110.455 89.543 200 200 200M533.5 651c-11-.5-22-1-33.5-1-121 0-234 33.5-330.5 91-44 26-69.5 75-69.5 126.5V950c0 27.5 22.5 50 50 50h413c-39.5-56.5-63-125.5-63-200 0-53.5 12.5-103.5 33.5-149"/><path fill-rule="evenodd" d="M1034.69 769.81c1.435 10.025 2.81 19.65 2.81 30.19s-1.375 20.165-2.81 30.185l-.19 1.315 42 36.5c9 8 11 21 5 31.5l-29.5 51c-6 10-18 15-29.5 11l-53-18q-24 20.25-54 31.5l-11 54.5c-2.5 11.5-12.5 20-24.5 20h-59c-12 0-22-8.5-24.5-20l-11-54.5q-30-11.25-54-31.5l-53 18c-11 4-23.5-.5-29.5-11l-29.5-51c-6-10.5-4-23.5 5-31.5l42-36.5c-.06-.44-.125-.875-.185-1.315-1.435-10.02-2.815-19.645-2.815-30.185s1.38-20.165 2.815-30.19c.06-.435.125-.87.185-1.31l-42-36.5c-9-8-11-21-5-31.5l29.5-51c6-10 18-15 29.5-11l53 18q24-20.25 54-31.5l11-54.5c2.5-11.5 12.5-20 24.5-20h59c12 0 22 8.5 24.5 20l11 54.5q30 11.25 54 31.5l53-18c11-4 23.5.5 29.5 11l29.5 51c6 10.5 4 23.5-5 31.5l-42 36.5zM750 800c0 55 45 100 100 100s100-45 100-100-45-100-100-100-100 45-100 100"/></g><defs><clipPath id="a"><path fill="#fff" d="M0 0h1200v1200H0z"/></clipPath></defs></svg>

<svg width="1200" height="1200" viewBox="0 0 1200 1200" fill="none" xmlns="http://www.w3.org/2000/svg"><g clip-path="url(#clip0_223_1867)"><path d="M500 600C610.455 600 700 510.455 700 400C700 289.543 610.455 200 500 200C389.543 200 300 289.543 300 400C300 510.455 389.543 600 500 600Z" fill="black"/><path d="M533.5 651C522.5 650.5 511.5 650 500 650C379 650 266 683.5 169.5 741C125.5 767 100 816 100 867.5V950C100 977.5 122.5 1000 150 1000H563C523.5 943.5 500 874.5 500 800C500 746.5 512.5 696.5 533.5 651Z" fill="black"/><path fill-rule="evenodd" d="M1034.69 769.81C1036.125 779.835 1037.5 789.46 1037.5 800C1037.5 810.54 1036.125 820.165 1034.69 830.185L1034.5 831.5L1076.5 868C1085.5 876 1087.5 889 1081.5 899.5L1052 950.5C1046 960.5 1034 965.5 1022.5 961.5L969.5 943.5C953.5 957 935.5 967.5 915.5 975L904.5 1029.5C902 1041 892 1049.5 880 1049.5H821C809 1049.5 799 1041 796.5 1029.5L785.5 975C765.5 967.5 747.5 957 731.5 943.5L678.5 961.5C667.5 965.5 655 961 649 950.5L619.5 899.5C613.5 889 615.5 876 624.5 868L666.5 831.5C666.44 831.06 666.375 830.625 666.315 830.185C664.88 820.165 663.5 810.54 663.5 800C663.5 789.46 664.88 779.835 666.315 769.81C666.375 769.375 666.44 768.94 666.5 768.5L624.5 732C615.5 724 613.5 711 619.5 700.5L649 649.5C655 639.5 667 634.5 678.5 638.5L731.5 656.5C747.5 643 765.5 632.5 785.5 625L796.5 570.5C799 559 809 550.5 821 550.5H880C892 550.5 902 559 904.5 570.5L915.5 625C935.5 632.5 953.5 643 969.5 656.5L1022.5 638.5C1033.5 634.5 1046 639 1052 649.5L1081.5 700.5C1087.5 711 1085.5 724 1076.5 732L1034.5 768.5L1034.69 769.81ZM750 800C750 855 795 900 850 900C905 900 950 855 950 800C950 745 905 700 850 700C795 700 750 745 750 800Z" fill="black"/></g><defs><clipPath id="clip0_223_1867"><path width="24" fill="white" d="M0 0H1200V1200H0V0z"/></clipPath></defs></svg>
